X:313
T:Jack Robinson
M:4/4
L:1/8
Q:180
K:G
G2 |: D2 G2 FGAB | c2 A2 A2 G2 | FG A2 FG A2 | Bcde d2 Bd |
e2 e2 d2 B2 | cBAG A2 G2 | D2 G2 FGAB | A2 G2 G4 :|
d2 d2 Bc d2 | e2 A2 A2 Bc | d2 d2 Bc d2 | e2 A2 A2 Bc |
d2 B2 c2 A2 | BAGB A2 G2 | D2 G2 FGAB | A2 G2 G2 z2 :|
